X:73
M:6/8
L:1/8
K:G
d/c/ | B2B Bcd | A2A A2d | G2G GAB | A3 D2d | dgd BdB | GBG D2c |
c2c c2c | Bc(d d)cB | (B3 A2)d | dgd BdB | GBG D2c | BcB AGA | G2G G2 :|

